public/favicon.svg

<svg xmlns="http://www.w3.org/2000/svg" xmlns:xlink="http://www.w3.org/1999/xlink" width="256" height="256" viewBox="0 0 256 256" fill="none"><path d="M30.2917 40.4944C35.7664 42.1193 35.7664 42.1193 38.5044 44.6665C41.483 50.1976 41.2945 55.3577 41.2312 61.4848C41.2372 62.7748 41.2434 64.065 41.2497 65.3942C41.2601 68.1904 41.2596 70.9869 41.2494 73.7832C41.2346 78.2089 41.2512 82.6335 41.2763 87.059C41.3414 99.6393 41.3433 112.22 41.3398 124.8C41.3396 132.499 41.3708 140.197 41.4197 147.896C41.4373 152.256 41.4176 156.615 41.3974 160.976C41.4118 163.649 41.4282 166.322 41.4467 168.994C41.4308 170.207 41.415 171.419 41.3988 172.668C41.4772 178.325 41.8199 181.304 45.3533 185.819C48.937 188.505 50.7556 189.849 55.2321 189.985C61.2301 187.111 61.2301 187.111 64.9649 181.86C65.1276 178.328 65.1848 174.792 65.1949 171.256C65.2006 170.167 65.2063 169.078 65.2121 167.956C65.2239 165.587 65.2327 163.218 65.2385 160.849C65.2501 157.091 65.2755 153.334 65.3055 149.576C65.3905 138.889 65.4684 128.203 65.4935 117.516C65.5101 110.98 65.5578 104.444 65.6254 97.9083C65.6454 95.4246 65.6538 92.941 65.6501 90.4573C65.6337 75.554 65.7914 63.7756 75.7939 51.8877C85.9052 43.6931 94.9084 39.5582 108.085 40.0374C119.134 41.3248 127.166 47.3782 134.717 55.1184C141.625 64.5752 141.419 74.0686 141.433 85.4393C141.463 88.1971 141.495 90.955 141.528 93.713C141.576 98.0384 141.611 102.363 141.612 106.689C141.617 110.879 141.673 115.067 141.738 119.257C141.726 120.549 141.715 121.841 141.703 123.171C141.843 129.535 142.247 132.486 146.634 137.229C150.858 140.022 150.858 140.022 156.007 139.613C161.598 137.665 162.737 136.661 165.537 131.488C165.989 126.697 166.176 122.236 166.139 117.448C166.168 114.641 166.196 111.833 166.225 109.026C166.241 104.622 166.247 100.219 166.244 95.8162C166.25 91.5506 166.295 87.2863 166.342 83.021C166.329 81.7222 166.315 80.4236 166.302 79.0855C166.441 68.4413 169.479 60.0731 176.366 51.8877C186.478 43.6931 195.481 39.5582 208.657 40.0374C219.696 41.3236 227.751 47.3724 235.289 55.1184C241.737 64.1602 242.016 72.0598 241.987 82.9324C241.992 84.919 241.992 84.919 241.997 86.9458C242.003 91.3184 241.999 95.6908 241.994 100.063C241.994 103.103 241.995 106.142 241.999 109.181C242 115.547 241.997 121.914 241.989 128.28C241.981 136.447 241.986 144.614 241.995 152.781C242.002 159.055 241.999 165.329 241.995 171.604C241.994 174.615 241.995 177.627 241.999 180.639C242.003 184.844 241.997 189.049 241.987 193.254C241.99 194.503 241.994 195.751 241.999 197.037C241.977 202.167 241.788 206.204 240.156 211.108C234.555 214.892 231.878 216.262 225.151 214.967C220.69 212.733 220.69 212.733 217.446 207.858C217.134 203.583 217.008 199.478 217.032 195.203C217.026 193.916 217.019 192.628 217.014 191.302C217.003 188.507 216.998 185.711 217.001 182.916C217.003 178.49 216.982 174.065 216.954 169.639C216.878 157.056 216.839 144.473 216.828 131.889C216.82 124.192 216.781 116.496 216.722 108.799C216.706 105.867 216.703 102.935 216.711 100.003C216.722 95.8991 216.695 91.7971 216.658 87.6934C216.671 86.4843 216.685 85.2752 216.698 84.0296C216.604 78.1663 215.941 74.8073 212.837 69.7758C209.52 66.0193 209.52 66.0193 204.367 65.8834C199.513 66.3476 199.513 66.3476 194.736 68.1176C192.686 74.2779 192.832 80.0975 192.772 86.5183C192.726 89.2572 192.679 91.9959 192.632 94.7349C192.566 99.0381 192.506 103.341 192.462 107.645C192.418 111.808 192.343 115.97 192.264 120.133C192.259 121.401 192.254 122.67 192.249 123.976C191.954 137.321 188.14 147.845 178.515 157.487C169.344 164.285 160.695 165.997 149.316 165.611C138.97 163.9 129.997 159.219 123.362 150.987C117.542 141.669 115.959 134.021 116.113 123.142C116.101 121.773 116.09 120.404 116.078 118.994C116.043 114.661 116.047 110.33 116.062 105.998C116.082 100.27 116.059 94.5439 116.012 88.816C116.03 87.5125 116.048 86.209 116.067 84.8661C116.01 78.4802 115.662 75.294 112.27 69.7057C108.933 66.0253 108.933 66.0253 103.795 65.8834C98.9412 66.3476 98.9412 66.3476 94.1633 68.1176C92.3334 73.6166 92.3169 77.8334 92.2854 83.6315C92.2771 84.7049 92.2689 85.7783 92.2604 86.8842C92.2431 89.2141 92.2291 91.5441 92.2181 93.8742C92.1989 97.5708 92.1673 101.267 92.1319 104.964C92.032 115.474 91.9444 125.985 91.8901 136.495C91.856 142.928 91.7986 149.36 91.7267 155.792C91.7039 158.235 91.6896 160.678 91.6844 163.121C91.6205 190.479 91.6205 190.479 83.4357 201.695C73.5256 211.074 64.2781 216.34 50.3657 215.982C38.4545 213.968 30.199 209.745 22.2494 200.458C13.257 187.3 15.1297 171.5 15.2236 156.236C15.2181 153.103 15.2102 149.97 15.2 146.837C15.1881 140.297 15.2053 133.757 15.2434 127.216C15.2897 118.832 15.2628 110.45 15.2144 102.066C15.1851 95.6073 15.1944 89.1495 15.2154 82.6911C15.2208 79.599 15.2142 76.5068 15.1953 73.4146C15.1747 69.1007 15.2061 64.7904 15.2513 60.4767C15.2349 59.2012 15.2184 57.9257 15.2015 56.6115C15.3226 50.3783 15.7801 47.5617 20.0542 42.9015C24.4114 40.4944 24.4114 40.4944 30.2917 40.4944Z"   fill="url(#linear_fill_S2L8Xgg0rh5JZ1jf3v9yD)" ></path><defs><linearGradient id="linear_fill_S2L8Xgg0rh5JZ1jf3v9yD" x1="15" y1="128" x2="242" y2="128" gradientUnits="userSpaceOnUse"><stop offset="0" stop-color="#F4D03F"  /><stop offset="1" stop-color="#16A085"  /></linearGradient></defs></svg>

<svg xmlns="http://www.w3.org/2000/svg" width="256" height="256" fill="none"><path d="M30.292 40.494c5.474 1.625 5.474 1.625 8.212 4.172 2.979 5.532 2.79 10.692 2.727 16.819l.019 3.91c.01 2.795.01 5.592 0 8.388-.015 4.426.001 8.85.026 13.276.065 12.58.067 25.161.064 37.741 0 7.699.03 15.397.08 23.096.017 4.36-.002 8.719-.023 13.08.015 2.673.031 5.346.05 8.018l-.048 3.674c.078 5.657.42 8.636 3.954 13.151 3.584 2.686 5.403 4.03 9.88 4.166 5.997-2.874 5.997-2.874 9.732-8.125.163-3.532.22-7.068.23-10.604l.017-3.3c.012-2.369.02-4.738.026-7.107.012-3.758.037-7.515.067-11.273.085-10.687.163-21.373.188-32.06.017-6.536.065-13.072.132-19.608.02-2.483.029-4.967.025-7.45-.016-14.904.141-26.682 10.144-38.57 10.111-8.195 19.114-12.33 32.291-11.85 11.049 1.287 19.081 7.34 26.632 15.08 6.908 9.457 6.702 18.95 6.716 30.321.03 2.758.062 5.516.095 8.274.048 4.325.083 8.65.084 12.976.005 4.19.061 8.378.126 12.568l-.035 3.914c.14 6.364.544 9.315 4.931 14.058 4.224 2.793 4.224 2.793 9.373 2.384 5.591-1.948 6.73-2.952 9.53-8.125.452-4.791.639-9.252.602-14.04l.086-8.422c.016-4.404.022-8.807.019-13.21.006-4.265.051-8.53.098-12.795l-.04-3.936c.139-10.644 3.177-19.012 10.064-27.197 10.112-8.195 19.115-12.33 32.291-11.85 11.039 1.286 19.094 7.334 26.632 15.08 6.448 9.042 6.727 16.942 6.698 27.814l.01 4.014c.006 4.372.002 8.745-.003 13.117a13510.074 13510.074 0 0 1-.005 28.217c-.008 8.167-.003 16.334.006 24.501.007 6.274.004 12.548 0 18.823-.001 3.011 0 6.023.004 9.035.004 4.205-.002 8.41-.012 12.615l.012 3.783c-.022 5.13-.211 9.167-1.843 14.071-5.601 3.784-8.278 5.154-15.005 3.859-4.461-2.234-4.461-2.234-7.705-7.109-.312-4.275-.438-8.38-.414-12.655-.006-1.287-.013-2.575-.018-3.901-.011-2.795-.016-5.591-.013-8.386.002-4.426-.019-8.851-.047-13.277a7307.772 7307.772 0 0 1-.126-37.75c-.008-7.697-.047-15.393-.106-23.09-.016-2.932-.019-5.864-.011-8.796.011-4.104-.016-8.206-.053-12.31l.04-3.663c-.094-5.864-.757-9.223-3.861-14.254-3.317-3.757-3.317-3.757-8.47-3.893-4.854.465-4.854.465-9.631 2.235-2.05 6.16-1.904 11.98-1.964 18.4l-.14 8.217c-.066 4.303-.126 8.606-.17 12.91-.044 4.163-.119 8.325-.198 12.488l-.015 3.843c-.295 13.345-4.109 23.869-13.734 33.511-9.171 6.798-17.82 8.51-29.199 8.124-10.346-1.711-19.319-6.392-25.954-14.624-5.82-9.318-7.403-16.966-7.249-27.845l-.035-4.148c-.035-4.333-.031-8.664-.016-12.996.02-5.728-.003-11.454-.05-17.182l.055-3.95c-.057-6.386-.405-9.572-3.797-15.16-3.337-3.68-3.337-3.68-8.475-3.823-4.854.465-4.854.465-9.632 2.235-1.83 5.499-1.846 9.715-1.878 15.514l-.025 3.252c-.017 2.33-.03 4.66-.042 6.99-.02 3.697-.05 7.393-.086 11.09-.1 10.51-.188 21.021-.242 31.531-.034 6.433-.091 12.865-.163 19.297a1017.37 1017.37 0 0 0-.043 7.329c-.063 27.358-.063 27.358-8.248 38.574-9.91 9.379-19.158 14.645-33.07 14.287-11.911-2.014-20.167-6.237-28.117-15.524-8.992-13.158-7.12-28.958-7.025-44.222a7361.84 7361.84 0 0 0-.024-9.399c-.012-6.54.005-13.08.043-19.621.047-8.384.02-16.766-.029-25.15-.029-6.459-.02-12.916.001-19.375.006-3.092 0-6.184-.02-9.276-.02-4.314.011-8.625.056-12.938l-.05-3.865c.122-6.234.58-9.05 4.853-13.71 4.357-2.408 4.357-2.408 10.238-2.408z" fill="url(#a)"/><defs><linearGradient id="a" x1="15" y1="128" x2="242" y2="128" gradientUnits="userSpaceOnUse"><stop offset="0" stop-color="#F4D03F"/><stop offset="1" stop-color="#16A085"/></linearGradient></defs></svg>
